X:1
T:Title
%%score { ( 1 3 4 ) | ( 2 5 ) }
L:1/8
Q:1/4=100
M:4/4
K:Bb
V:1 treble nm="Grand Piano"
V:3 treble 
V:4 treble 
V:2 bass 
V:5 bass 
V:1
 [DF]2 [DB]2 [Ec]2 [Fd]2 |[M:9/8] [B,FB]2 [B,EG]- [B,EG] [B,DF]2- [B,DF][B,DF][DFB] | %2
w: T.~H.~R.~Christie * * *||
[M:4/4] BABc (3ddd cB | c6 z2 | [DF]2 [DB]2 [Ec]2 [Fd]2 |[M:7/8] [B,FB]2 [B,EG]2 [B,DF]3 | %6
w: ||||
[M:1/4] [B,DF][DFB] |[M:4/4] [DFB][EFA][DFB][CGc] (3ddd dc |[M:3/4] [DB]6 |[M:1/4] D>F | %10
w: ||||
[M:4/4] [DB]6[K:bass][K:treble] z2 |[M:3/4] [Fd]6 |[M:1/4] c>B |[M:4/4] A6[K:bass][K:treble] z2 | %14
w: ||||
[M:3/4] (3[A,C-F-][A,C-F-][A,C-F-] [CF]4 |[M:1/4] D>F |[M:4/4] [DB]6[K:bass][K:treble] z2 | %17
w: |||
[M:3/4] [Fd]6 |[M:1/4] [B,DF][DFB] |[M:4/4] [DFB][EFA][DFB][CGc] (3ddd dc | B6 z2 |] %21
w: ||||
V:2
 [B,,B,]2 [B,,B,]2 [B,,B,]2 [B,,B,]2 |[M:9/8] D,2 E,- E, B,,2- B,,B,,B,, | %2
[M:4/4][K:treble] [F,DF][F,EF][F,DF][F,CF] (3[B,F][B,F][B,F] [A,CF][G,C=E] | [F,A,F]6 z2 | %4
 [B,,B,]2 [B,,B,]2 [B,,B,]2 [B,,B,]2 |[M:7/8] D,2 E,2 B,,3 |[M:1/4] B,,B,, | %7
[M:4/4] B,,C,D,E, (3[F,B,F][F,B,F][F,B,F] [F,B,F][F,E] |[M:3/4] [B,,F,]6 |[M:1/4] B,>D | %10
[M:4/4] [B,,F,]>B,, B,,>B,, z D E>D |[M:3/4] (3[B,,B,]B,,B,, B,,>B,, B,,2 |[M:1/4] E>D | %13
[M:4/4] C->[C,C-] [C,C-]>[C,C-] CB, D>C |[M:3/4] (3F,F,F, F,>F, F,2 |[M:1/4] B,>D | %16
[M:4/4] [B,,F,]>B,, B,,>B,, z[K:treble] D E>D |[M:3/4] (3B,B,[K:bass]B, B,>B, B,2 |[M:1/4] B,,B,, | %19
[M:4/4] B,,C,D,E, (3[F,B,F][F,B,F][F,B,F] [F,B,F][F,E] | F,2 G,G, F,2 z2 |] %21
V:3
 x8 |[M:9/8] x9 |[M:4/4] x8 | x8 | x8 |[M:7/8] x7 |[M:1/4] x2 |[M:4/4] x8 |[M:3/4] x6 |[M:1/4] x2 | %10
[M:4/4] z z/[K:bass] F,/ F,>F, z[K:treble] F G>F |[M:3/4] (3z B,B, z2 z2 |[M:1/4] x2 | %13
[M:4/4] z z/[K:bass] F,/ F,>F, z[K:treble] G F>=E |[M:3/4] z2 A,>A, A,2 |[M:1/4] x2 | %16
[M:4/4] z z/[K:bass] F,/ F,>F, z[K:treble] F G>F |[M:3/4] x6 |[M:1/4] x2 |[M:4/4] x8 | %20
 D2 EE D2 z2 |] %21
V:4
 x8 |[M:9/8] x9 |[M:4/4] x8 | x8 | x8 |[M:7/8] x7 |[M:1/4] x2 |[M:4/4] x8 |[M:3/4] x6 |[M:1/4] x2 | %10
[M:4/4] z4[K:bass] F,2[K:treble] z2 |[M:3/4] z2 B,>B, B,2 |[M:1/4] x2 | %13
[M:4/4] z4[K:bass] F,2[K:treble] z2 |[M:3/4] x6 |[M:1/4] x2 |[M:4/4] z4[K:bass] F,2[K:treble] z2 | %17
[M:3/4] x6 |[M:1/4] x2 |[M:4/4] x8 | x8 |] %21
V:5
 x8 |[M:9/8] x9 |[M:4/4][K:treble] x8 | x8 | x8 |[M:7/8] x7 |[M:1/4] x2 |[M:4/4] x8 |[M:3/4] x6 | %9
[M:1/4] x2 |[M:4/4] z4 B,,2 z2 |[M:3/4] x6 |[M:1/4] x2 |[M:4/4] [C,F,]2 z2 C,2 z2 |[M:3/4] x6 | %15
[M:1/4] x2 |[M:4/4] z4 B,,2[K:treble] z2 |[M:3/4] x4/3[K:bass] x14/3 |[M:1/4] x2 |[M:4/4] x8 | %20
 B,,6 z2 |] %21

